packages/icons/svg/Store_Map_48px.svg

<svg xmlns="http://www.w3.org/2000/svg" viewBox="0 0 48 48"><path d="M39.51 10.2l-9.33-3.13a2 2 0 00-1 0L18.33 10 9.51 7.07A2 2 0 007 9v26.86a2 2 0 001.49 1.94l9.33 3.13a2 2 0 001 0L29.67 38l8.82 2.93A2 2 0 0041 39V12.14a2 2 0 00-1.49-1.94zm-20.18 2.64l9.34-2.53v24.85l-9.34 2.53zM10 10.3l7.33 2.52v24.8L10 35.09zm28 27.4l-7.33-2.52v-24.8L38 12.91z"/></svg>

<svg xmlns="http://www.w3.org/2000/svg" viewBox="0 0 48 48"><defs></defs><g id="Icon"><path  d="M39.51,10.2,30.18,7.07a2,2,0,0,0-1,0L18.33,10,9.51,7.07A2,2,0,0,0,7,9V35.86A2,2,0,0,0,8.49,37.8l9.33,3.13a2,2,0,0,0,1,0L29.67,38l8.82,2.93A2,2,0,0,0,41,39V12.14A2,2,0,0,0,39.51,10.2ZM19.33,12.84l9.34-2.53V35.16l-9.34,2.53ZM10,10.3l7.33,2.52v24.8L10,35.09ZM38,37.7l-7.33-2.52V10.38L38,12.91Z"/></g></svg>
